Sources/FrostedUI/Resources/Icons.xcassets/gamepad32.imageset/gamepad-32.svg

<svg width="32" height="32" viewBox="0 0 32 32" fill="none" xmlns="http://www.w3.org/2000/svg" data-fui-icon="true">
  <path
    d="M21.897 4.75C26.329 4.75044 30.0616 8.06475 30.5854 12.4658L31.7124 21.9385C32.0487 24.7641 29.8421 27.2495 26.9966 27.25H26.7349C25.7805 27.25 24.8477 26.9623 24.0591 26.4248L20.5972 24.0645C20.0578 23.6968 19.4198 23.5002 18.7671 23.5H13.2349C12.5819 23.5 11.9434 23.6967 11.4038 24.0645L7.94287 26.4248C7.15432 26.9625 6.22148 27.2499 5.26709 27.25H5.00537C2.15941 27.25 -0.0478833 24.7645 0.288574 21.9385L1.4165 12.4658C1.94055 8.06459 5.67266 4.75 10.105 4.75H21.897ZM10.105 6.25C6.43259 6.25 3.34012 8.99601 2.90576 12.6426L1.77783 22.1162C1.54789 24.0496 3.05827 25.75 5.00537 25.75H5.26709C5.92002 25.7499 6.55867 25.5534 7.09814 25.1855L10.5591 22.8252C11.3477 22.2877 12.2805 22 13.2349 22H18.7671C19.7214 22.0002 20.6544 22.2876 21.4429 22.8252L24.9038 25.1855C25.4434 25.5533 26.0819 25.75 26.7349 25.75H26.9966C28.9432 25.7495 30.453 24.0493 30.2231 22.1162L29.0962 12.6426C28.6619 8.99623 25.569 6.25044 21.897 6.25H10.105ZM10.4995 10.75C10.9137 10.75 11.2495 11.0858 11.2495 11.5V13.75H13.4995C13.9137 13.75 14.2495 14.0858 14.2495 14.5C14.2495 14.9142 13.9137 15.25 13.4995 15.25H11.2495V17.5C11.2495 17.9142 10.9137 18.25 10.4995 18.25C10.0855 18.2498 9.74952 17.9141 9.74951 17.5V15.25H7.49951C7.08551 15.2498 6.74952 14.9141 6.74951 14.5C6.74951 14.0859 7.08551 13.7502 7.49951 13.75H9.74951V11.5C9.74951 11.0859 10.0855 10.7502 10.4995 10.75ZM19.7505 15.5C20.4405 15.5003 21.0003 16.06 21.0005 16.75C21.0003 17.44 20.4405 17.9997 19.7505 18C19.0603 18 18.4997 17.4402 18.4995 16.75C18.4997 16.0598 19.0603 15.5 19.7505 15.5ZM22.8501 10.999C23.5403 10.999 24.0999 11.5598 24.1001 12.25C24.0998 12.9401 23.5403 13.5 22.8501 13.5C22.1599 13.5 21.6004 12.9401 21.6001 12.25C21.6003 11.5598 22.1599 10.999 22.8501 10.999Z"
    fill="currentColor"
  />
</svg>

<svg xmlns="http://www.w3.org/2000/svg" width="32" height="32" fill="none" data-fui-icon="true" viewBox="0 0 32 32"><path fill="currentColor" d="M21.897 4.75a8.75 8.75 0 0 1 8.688 7.716l1.127 9.473a4.75 4.75 0 0 1-4.715 5.311h-.262a4.75 4.75 0 0 1-2.676-.825l-3.462-2.36a3.25 3.25 0 0 0-1.83-.565h-5.532c-.653 0-1.292.197-1.831.564l-3.461 2.36a4.75 4.75 0 0 1-2.676.826h-.262A4.75 4.75 0 0 1 .29 21.939l1.128-9.473a8.75 8.75 0 0 1 8.688-7.716zm-11.792 1.5a7.25 7.25 0 0 0-7.2 6.393l-1.127 9.473a3.25 3.25 0 0 0 3.227 3.634h.262c.653 0 1.292-.197 1.831-.564l3.461-2.36A4.75 4.75 0 0 1 13.235 22h5.532c.954 0 1.887.288 2.676.825l3.46 2.36c.54.368 1.179.565 1.832.565h.262a3.25 3.25 0 0 0 3.226-3.634l-1.127-9.473a7.25 7.25 0 0 0-7.199-6.393zm.394 4.5a.75.75 0 0 1 .75.75v2.25h2.25a.75.75 0 0 1 0 1.5h-2.25v2.25a.75.75 0 0 1-1.5 0v-2.25H7.5a.75.75 0 0 1 0-1.5h2.25V11.5a.75.75 0 0 1 .75-.75m9.251 4.75a1.25 1.25 0 1 1-.001 2.502 1.25 1.25 0 0 1 .002-2.502m3.1-4.501a1.251 1.251 0 1 1-.002 2.502A1.251 1.251 0 0 1 22.85 11"/></svg>
